X:1
T: The Happy Meeting
C:
R:Jig
Q:180
K:A
M:6/8
L:1/16
|:A4A2 A4|e2c2A2 B2G2E2|F4F2 F4A2|G2E2G2 A6|A4A2 A4c2|e2c2A2 B2G2E2|F2G2A2 B2c2d2|^d2e2d2 e6|
A4A2 A4c2|e2c2A2 B2G2E2|F4F2 F4A2|G2E2G2 A6|A4A2 A4c2|e2c2A2 B2G2E2|F2G2A2 B2c2d2|^d2e2d2 e6|
B4d2 B2G2E2|B4d2 B2G2E2|A2G2A2 F2G2A2|B2d2c2 B4d2|c2A2c2 B2G2E2|A2G2A2 F2E2D2|D2C2D2 B,2d2c2|B2A2G2 A6|
B4d2 B2G2E2|B4d2 B2G2E2|A2G2A2 F2G2A2|B2d2c2 B4d2|c2A2c2 B2G2E2|A2G2A2 F2E2D2|D2C2D2 B,2d2c2|B2A2G2 A6:|
